symbolic/22x22/actions/filename-space-amarok.svg

<svg xmlns="http://www.w3.org/2000/svg" width="22" height="22" viewBox="0 0 22 22">
 <defs>
  <style id="current-color-scheme" type="text/css">
   .ColorScheme-Text { color:#323a41; } .ColorScheme-Highlight { color:#4285f4; } .ColorScheme-NeutralText { color:#ff9800; } .ColorScheme-PositiveText { color:#4caf50; } .ColorScheme-NegativeText { color:#f44336; }
  </style>
 </defs>
 <path style="fill:currentColor" class="ColorScheme-Text" d="M 3 10 A 1.0001 1.0001 0 0 0 2 11 L 2 13 A 1.0001 1.0001 0 0 0 3 14 L 13 14 A 1.0001 1.0001 0 0 0 14 13 L 14 11 A 1.0001 1.0001 0 0 0 13 10 L 12 10 A 1.0001 1.0001 0 0 0 11 11 L 5 11 A 1.0001 1.0001 0 0 0 4 10 L 3 10 z" transform="translate(3 3)"/>
</svg>

<svg xmlns="http://www.w3.org/2000/svg" width="22" height="22"><defs><style id="current-color-scheme" type="text/css"></style></defs><path style="fill:currentColor;color:#323a41" d="M3 10a1 1 0 0 0-1 1v2a1 1 0 0 0 1 1h10a1 1 0 0 0 1-1v-2a1 1 0 0 0-1-1h-1a1 1 0 0 0-1 1H5a1 1 0 0 0-1-1H3z" transform="translate(3 3)"/></svg>
